X: 19861
T: Jessie
R: polka
M: 2/4
K: Gmajor
|:B2ce|d2^cd|gd^cd|fe^de|a2ge|g2fe|fedc|ed^c=c|
B2ce|d2^cd|gg/g/ ab|ae^de|agfd|gd^cd|edcA|1 G2GA:|2 G2Bd||
|:e2g2|d2^cd|fdcA|edBG|e2g2|d2^cd|fdcA|G2Bd|
e2g2|d2^cd|fdcA|edBG|e2g2|d2^cd|fdcA|G2G2:|
K:C
G4-|GEFG|A4-|AFGA|B2B2|A2B2|A2G2-|GEF^F|
G4-|GcB_B|A4-|Ad^c=c|B2G2|e2d2|c2GA/B/|c2c2|
G2EF|GcB_B|A2FG|Ad^c=c|B2B2|A2B2|AGG2-|GEF^F|
G2EF|GcB_B|A2FG|Ad^c=c|B2G2|e2d2|c2GA/B/|c2c2||

